X:85
T:Tailor's Twist, The
R:hornpipe
D:Paul McGrattan: The Frost is All Over
Z:id:hn-hornpipe-85
M:C|
K:D
FE|DAFD AFdA|Bged cbag|fedc Bged|cABG AGFE|
DAFD AFdA|Bged cbag|fedc Bgec|d2dc d2:|
|:fg|~a3f defa|bagf eAce|~g3e cdef|gefd egfe|
dfec dAFA|Bged cbag|fedc Bgec|d2dc d2:|
